X:0
T:Threading the Needle
M:C|
C:© Paul Gitlitz 2009
R:Reel
K:D
"D"Adcd "Bm"BdAd|"D"BdAd "Bm"fded|"D"fded "G"gdfd|"E7"edcB "A7"AGFE|!
"D"Ddcd "Bm"BdAd|"D"BdAd "Bm"fded|"D"gdfd "E7"edcB |1"A7"edce "D"d3A:|2"A7"AGFE "D"D3A|!
|:"D"afdf "A"gece|"D"fdAd "A"ecAc|"G"dBGB "F#m"cAFA|"G"BAGF "A"Ecde|!
"D"fdAd "A"ecAc|"G"dBGB "F#m"cAFA|"Em"BGEG "D"AFDF|1"A"GECE "D"D3A:|2"A"GECE "D"D4|]
